images_breeze_svg/cmd/32/footnotedialog.svg

<svg viewBox="0 0 32 32" xmlns="http://www.w3.org/2000/svg"><path d="m25 20-2 3h2v5h1v-8zm-16 1v1h9v-1z" fill="#1d99f3"/><path d="m6 4v13h1v-12h15v19h-14v1h1v3h12v-1h-11v-2h12 1v-1-17h2v12h1v-13h-3v-2zm3 4v1h11v-1zm0 3v1h9v-1zm0 7v1h9v-1z" fill="#4d4d4d"/><path d="m6 18c-.55228 0-1 .44772-1 1 0 .55229.44772 1 1 1s1-.44771 1-1c0-.55228-.44772-1-1-1zm0 4c-.55228 0-1 .44772-1 1 0 .55229.44772 1 1 1s1-.44771 1-1c0-.55228-.44772-1-1-1zm0 4c-.55228 0-1 .44772-1 1 0 .55229.44772 1 1 1s1-.44771 1-1c0-.55228-.44772-1-1-1z" fill="#f47750"/></svg>

<?xml version="1.0" encoding="UTF-8" standalone="no"?>
<svg
   xmlns:dc="http://purl.org/dc/elements/1.1/"
   xmlns:cc="http://creativecommons.org/ns#"
   xmlns:rdf="http://www.w3.org/1999/02/22-rdf-syntax-ns#"
   xmlns:svg="http://www.w3.org/2000/svg"
   xmlns="http://www.w3.org/2000/svg"
   xmlns:sodipodi="http://sodipodi.sourceforge.net/DTD/sodipodi-0.dtd"
   xmlns:inkscape="http://www.inkscape.org/namespaces/inkscape"
   viewBox="0 0 32 32"
   version="1.1"
   id="svg6"
   sodipodi:docname="footnotedialog.svg"
   inkscape:version="0.92.4 (unknown)"
   inkscape:export-filename="/home/rizmut/Dokumen/Rizmut/Github/libreoffice-style-breeze/images_breeze/cmd/32/footnotedialog.png"
   inkscape:export-xdpi="96"
   inkscape:export-ydpi="96">
  <metadata
     id="metadata12">
    <rdf:RDF>
      <cc:Work
         rdf:about="">
        <dc:format>image/svg+xml</dc:format>
        <dc:type
           rdf:resource="http://purl.org/dc/dcmitype/StillImage" />
        <dc:title></dc:title>
      </cc:Work>
    </rdf:RDF>
  </metadata>
  <defs
     id="defs10" />
  <sodipodi:namedview
     pagecolor="#ffffff"
     bordercolor="#666666"
     borderopacity="1"
     objecttolerance="10"
     gridtolerance="10"
     guidetolerance="10"
     inkscape:pageopacity="0"
     inkscape:pageshadow="2"
     inkscape:window-width="1360"
     inkscape:window-height="714"
     id="namedview8"
     showgrid="true"
     inkscape:zoom="10.429825"
     inkscape:cx="18.320403"
     inkscape:cy="8.3447311"
     inkscape:window-x="0"
     inkscape:window-y="28"
     inkscape:window-maximized="1"
     inkscape:current-layer="svg6">
    <inkscape:grid
       type="xygrid"
       id="grid822" />
  </sodipodi:namedview>
  <path
     d="m 25,20 -2,3 h 2 v 5 h 1 V 20 Z M 9,21 v 1 h 9 v -1 z"
     id="path2"
     inkscape:connector-curvature="0"
     style="fill:#1d99f3"
     sodipodi:nodetypes="cccccccccccc" />
  <path
     style="fill:#4d4d4d;stroke:none"
     d="M 6,4 V 17 H 7 V 5 H 22 V 24 H 8 v 1 h 1 v 3 H 21 V 27 H 10 v -2 h 12 1 V 24 7 h 2 v 12 h 1 V 6 H 23 V 4 Z M 9,8 V 9 H 20 V 8 Z m 0,3 v 1 h 9 v -1 z m 0,7 v 1 h 9 v -1 z"
     id="path4"
     inkscape:connector-curvature="0"
     sodipodi:nodetypes="cccccccccccccccccccccccccccccccccccccccc" />
  <path
     inkscape:connector-curvature="0"
     style="fill:#f47750"
     d="m 6,18 c -0.55228,0 -1,0.44772 -1,1 0,0.55229 0.44772,1 1,1 0.55228,0 1,-0.44771 1,-1 0,-0.55228 -0.44772,-1 -1,-1 z m 0,4 c -0.55228,0 -1,0.44772 -1,1 0,0.55229 0.44772,1 1,1 0.55228,0 1,-0.44771 1,-1 0,-0.55228 -0.44772,-1 -1,-1 z m 0,4 c -0.55228,0 -1,0.44772 -1,1 0,0.55229 0.44772,1 1,1 0.55228,0 1,-0.44771 1,-1 0,-0.55228 -0.44772,-1 -1,-1 z"
     id="path4-0" />
</svg>
